style-guide/assets/wds-icons-activity-small.svg

<svg width="18" height="18" viewBox="0 0 18 18" xmlns="http://www.w3.org/2000/svg">
  <path d="M10.75,17.0016658 C10.72,17.0016658 10.689,17.0006658 10.659,16.9986658 C10.016,16.9596658 9.469,16.5146658 9.301,15.8916658 L6.934,7.09866578 L5.881,9.58566578 C5.646,10.1416658 5.102,10.5016658 4.5,10.5016658 L1.5,10.5016658 C0.671,10.5016658 0,9.82966578 0,9.00166578 C0,8.17366578 0.671,7.50166578 1.5,7.50166578 L3.505,7.50166578 L5.868,1.91766578 C6.118,1.32666578 6.707,0.948665778 7.353,1.00566578 C7.991,1.04966578 8.532,1.49366578 8.698,2.11166578 L11.035,10.7906658 L11.984,8.43966578 C12.213,7.87266578 12.763,7.50166578 13.375,7.50166578 L16.5,7.50166578 C17.328,7.50166578 18,8.17366578 18,9.00166578 C18,9.82966578 17.328,10.5016658 16.5,10.5016658 L14.386,10.5016658 L12.14,16.0636658 C11.91,16.6326658 11.358,17.0016658 10.75,17.0016658"></path>
</svg>

<svg width="18" height="18" viewBox="0 0 18 18" xmlns="http://www.w3.org/2000/svg">
  <path d="M10.75 17.002a1.5 1.5 0 0 1-1.449-1.11L6.934 7.099 5.881 9.586a1.499 1.499 0 0 1-1.381.916h-3a1.5 1.5 0 1 1 0-3h2.005l2.363-5.584c.25-.591.839-.97 1.485-.912a1.5 1.5 0 0 1 1.345 1.106l2.337 8.679.949-2.351a1.5 1.5 0 0 1 1.391-.938H16.5a1.5 1.5 0 0 1 0 3h-2.114l-2.246 5.562a1.5 1.5 0 0 1-1.39.938"/>
</svg>
